X:94
T:Reels simple chords 84
M:3/4
L:1/8
K:Bm
A2 [d2D,2F,2A,2] A2 | F2 A2 [B2E,2G,2B,2] | G2 E2 G2 | [F2D,2F,2A,2] A2 d3 |e [fA,CEG]g fe |
d2 A2 [d2D,2F,2A,2] | A2 F2 A2 | [B2E,2G,2B,2] G2 E2 | G2 [F2A,2C2E2G2]>E2 |
D2 C4< [D4D,4F,4A,4] | A2 | [d2D,2F,2A,2] A2 F2 | A2 [B2E,2G,2B,2] G2 |
E2 G2 [F2D,2F,2A,2] | A2 d2>e2 | [fA,CEG]g fe d2 | A2 [d2D,2F,2A,2] A2 |
F2 A2 [B2E,2G,2B,2] | G2 E2 G2 | [F2A,2C2E2G2]>E2 D2 | C4< [D4D,4F,4A,4] |
FG2< [A2D,2F,2A,2] |G F2 G2 | [A2D,2F,2A,2] d2 f2 | A2 [B2E,2G,2B,2] d2 |
g2 f2 [eA,CEG]f | ed c2 FG | [A2D,2F,2A,2]>G2 F2 | G2 [A2D,2F,2A,2] d2 |
f2 A2 [B2G,2B,2D2] | g2 fe dc | [d6D,6F,6A,6] | FG2< [A2D,2F,2A,2]G |
F2 G2 [A2D,2F,2A,2] | d2 f2 A2 | [B2E,2G,2B,2] d2 g2 | f2 [eA,CEG]f ed |
c2 FG2< [A2D,2F,2A,2] |G F2 G2 | [A2D,2F,2A,2] d2 f2 | A2 [B2G,2B,2D2] g2 |
fe dc [d6D,6F,6A,6] | cd | [e2A,2C2E2]>c2 A2 | A2 [f2D,2F,2A,2]>d2 |
A2 A2 [^g2E,2G,2B,2D2] | e2 f2 ^g2 | [a2A,2C2E2G2] g2 f2 | e2 [d2D,2F,2A,2] A2 |
F2 A2 [B2E,2G,2B,2] | G2 E2 G2 | [F2D,2F,2A,2] A2 d3 |e [d6D,6F,6A,6] |
cd2< [e2A,2C2E2] |c A2 A2 | [f2D,2F,2A,2]>d2 A2 | A2 [^g2E,2G,2B,2D2] e2 |
f2 ^g2 [a2A,2C2E2=G2] | g2 f2 e2 | [d2D,2F,2A,2] A2 F2 | A2 [B2E,2G,2B,2] G2 |
E2 G2 [F2D,2F,2A,2] | A2 d2>e2 | [d6D,6F,6A,6] |


